X:1
T: Sergeant Stack's Favourite
C:
R:Jig
Q:180
K:A
M:6/8
L:1/16
AB|c6 B2c2B2|A2G2E2 G2A2B2|c6 d2c2d2|efg2e2 age2d2|c6 B2c2B2|A2G2E2 G2A2B2|c2B2A2 G2E2D2|E2A2A2 A4AB|
cde2f2 g2f2g2|e2a2f2 g2e2dB|cde2f2 g2f2g2|e2a2g2 a4AB|cde2f2 g2f2g2|e2a2b2 a2g2ed|c6 d6|e2e2c2 d2f2ed|
cde2f2 g2f2g2|e2a2f2 g2e2dB|cde2f2 g2f2g2|e2a2g2 a4AB|cde2f2 g2f2g2|e2a2b2 a2g2ed|c6 d6|e2e2c2 d2f2ed|
c6 B2c2B2|A2G2E2 G2A2B2|c6 d2c2d2|efg2e2 age2d2|c6 B2c2B2|A2G2E2 G2A2B2|c2B2A2 G2E2D2|E2A2A2 A4||
